X:1
T:Title
%%score { ( 1 4 ) | ( 2 3 ) }
L:1/8
M:3/4
K:G
V:1 bass nm="Grand Piano"
V:4 bass 
V:2 bass 
V:3 bass 
V:1
 z2 z2[Q:1/4=108] D2 | [D,B,D]2[K:treble] [_B,E]2 [CF]2 | [B,A]2 [DG]2 [DE]2 | [CG]2 F3 E | F4 D2 | %5
 [Fc]2 [FB]2 [FA]2 | E2 F2 A2 | D6- | D4 [B,D]2 | E2 ^D2 E2 | [EA]2 [EG]2 [CE]2 | %11
 [B,E]2 [B,D]3 [_B,^C] |[M:2/4] [B,D]4 |[M:1/4] D2 |[M:3/4] ^C2 [CE]2 [CG]2 | [^CB]2 [CA]3 E | %16
 A6- |[M:2/4] A4 |[M:1/4] Bc |[M:3/4] d2 ^c2 e2 | d4 GA | B2 _B2 c2 | B4 B2 | %23
 [Fd]2 [CFA]2 [B,=F^G]2 | [CFA]2 [DFB]2 [EFc]2 | G6- | [GB]4 d2 | [Ge]2 [Gc]2 [Ge]2 | d2 B2 d2 | %29
 [Fc]2 [DFA]3 [DAc] | [DGB]4 [G,D]2 | [G,CE]2 [CEA]2 [A,EG]2 | [A,DF]2 [DFB]3 [CFA] | [B,G]6- | %34
[M:2/4] [B,G]4 |] %35
V:2
 z2 z2 D,2 | G,,2 [G,,^C,]2 [G,,^D,]2 | [G,,D,]2 [B,,G,]2 [_B,,G,]2 | [A,,A,]2 [D,A,C]3 [D,G,C] | %4
 [D,A,C]4 [D,F,]2 | [D,A,]2 [D,D]2 [D,C]2 | [D,F,C]2 [D,A,C]2 [D,F,C]2 | [G,B,]6- | %8
 [G,B,]4 [G,,G,]2 | [C,G,C]2 [C,F,C]2 [C,G,C]2 | [C,C]2 [C,C]2 [C,G,]2 | %11
 [G,,G,]2 [G,,G,]3 [G,,E,] |[M:2/4] [G,,G,]4 |[M:1/4] [B,,G,]2 | %14
[M:3/4] [A,,E,A,]2 [A,,E,]2 [A,,E,]2 | [A,,G,]2 [A,,E,]3 [^C,G,] | [D,F,D]6- |[M:2/4] [D,F,D]4 | %18
[M:1/4] [G,D]2 |[M:3/4][K:treble] [G,B,G]2 [G,_B,G]2 [G,CG]2 | [G,B,G]4 [B,D][A,DF] | %21
 [G,DG]2 [G,^CG]2 [G,EG]2 | [G,DG]4[K:bass] [G,D]2 | [D,A,]2 D,2 D,2 | D,2 D,2 D,2 | z6 | %26
 D4 [G,B,G]2 | [C,C]2 [E,C]2 [C,C]2 | [G,B,G]2 [G,D]2[K:bass] [G,B,D]2 | [D,A,]2 D,3 F, | %30
 G,4 B,,2 | C,2 A,,2 ^C,2 | D,2 D,3 D, | G,,6- |[M:2/4] G,,4 |] %35
V:3
 x6 | x6 | x6 | x6 | x6 | x6 | x6 | x6 | x6 | x6 | x6 | x6 |[M:2/4] x4 |[M:1/4] x2 |[M:3/4] x6 | %15
 x6 | x6 |[M:2/4] x4 |[M:1/4] z A, |[M:3/4][K:treble] x6 | x6 | x6 | x4[K:bass] x2 | x6 | x6 | %25
 G,6- | G,4 z2 | x6 | x4[K:bass] x2 | x6 | x6 | x6 | x6 | x6 |[M:2/4] x4 |] %35
V:4
 x6 | x2[K:treble] x4 | x6 | x6 | x6 | x6 | x6 | x6 | x6 | x6 | x6 | x6 |[M:2/4] x4 |[M:1/4] x2 | %14
[M:3/4] x6 | x6 | x6 |[M:2/4] x4 |[M:1/4] x2 |[M:3/4] x6 | x6 | x6 | x6 | x6 | x6 | [Ec]6 | x6 | %27
 x6 | x6 | x6 | x6 | x6 | x6 | x6 |[M:2/4] x4 |] %35

